alpha-y-circle-outline.svg

<svg fill="currentColor" viewBox="0 0 24 24"><path d="M9 7h2l1 3 1-3h2l-2 6v4h-2v-4zm3-5a10 10 0 0 1 10 10 10 10 0 0 1-10 10A10 10 0 0 1 2 12 10 10 0 0 1 12 2m0 2a8 8 0 0 0-8 8 8 8 0 0 0 8 8 8 8 0 0 0 8-8 8 8 0 0 0-8-8"/></svg>

<svg  viewBox="0 0 24 24" fill="currentColor"><path  d="M9,7H11L12,10L13,7H15L13,13V17H11V13L9,7M12,2A10,10 0 0,1 22,12A10,10 0 0,1 12,22A10,10 0 0,1 2,12A10,10 0 0,1 12,2M12,4A8,8 0 0,0 4,12A8,8 0 0,0 12,20A8,8 0 0,0 20,12A8,8 0 0,0 12,4Z"/></svg>
